assets/icons/micro.svg

<svg width="21" height="20" viewBox="0 0 21 20" fill="none" xmlns="http://www.w3.org/2000/svg">
<path d="M16.0885 9.16724C16.405 9.16724 16.6665 9.4024 16.7079 9.7074L16.7135 9.79224V10.2089C16.7135 13.1751 14.4177 15.6051 11.506 15.8187L11.5052 17.7089C11.5052 18.0541 11.2254 18.3339 10.8802 18.3339C10.5638 18.3339 10.3023 18.0987 10.2609 17.7937L10.2552 17.7089V15.8187C7.4079 15.6102 5.14923 13.2822 5.05026 10.4058L5.04688 10.2089V9.79224C5.04688 9.44707 5.3267 9.16724 5.67188 9.16724C5.98829 9.16724 6.24978 9.4024 6.29117 9.7074L6.29688 9.79224V10.2089C6.29688 12.5647 8.15892 14.4857 10.4915 14.5802L10.6719 14.5839H11.0885C13.4444 14.5839 15.3653 12.7219 15.4599 10.3892L15.4635 10.2089V9.79224C15.4635 9.44707 15.7434 9.16724 16.0885 9.16724ZM10.8802 1.66724C12.7211 1.66724 14.2135 3.15962 14.2135 5.00057V10.0006C14.2135 11.8415 12.7211 13.3339 10.8802 13.3339C9.03926 13.3339 7.54688 11.8415 7.54688 10.0006V5.00057C7.54688 3.15962 9.03926 1.66724 10.8802 1.66724Z" fill="white" fill-opacity="0.66"/>
</svg>

<svg xmlns="http://www.w3.org/2000/svg" width="21" height="20" fill="none" viewBox="0 0 21 20"><path fill="#fff" fill-opacity=".66" d="M16.089 9.167c.316 0 .578.235.619.54l.006.085v.417a5.625 5.625 0 0 1-5.208 5.61v1.89a.625.625 0 0 1-1.245.085l-.006-.085v-1.89a5.626 5.626 0 0 1-5.205-5.413l-.003-.197v-.417a.625.625 0 0 1 1.244-.085l.006.085v.417a4.375 4.375 0 0 0 4.195 4.371l.18.004h.416a4.375 4.375 0 0 0 4.372-4.195l.003-.18v-.417c0-.345.28-.625.626-.625m-5.209-7.5a3.333 3.333 0 0 1 3.333 3.334v5a3.333 3.333 0 0 1-6.666 0V5a3.333 3.333 0 0 1 3.333-3.334"/></svg>
